X: 169
T: Come West Along The Road
R: reel
M: 4/4
L: 1/8
K: Gmaj
d2BG dGBG|~G2Bd ef (3gfe|d2BG dGBG|1 ABcd edBc:|2 ABcd edBd||
g2bg egdg|eg dg edBd|g2bg egdB|ABcd edBd|
g2bg egdg|(3efg dg edBd|gabg efge|dega bage||

